X: 0
T: Willie Coleman's
C: Willie Coleman
R: jig
M: 6/8
L: 1/8
K: Gmaj
"G"B2G AGE|GED G2d|"C"edB dgb|"D"age dBA|
B2G AGE|GED G2d|"C"edB dBA|"D"AGE "G"G3:|
"G"~g3 edB|dgb age|~g3 edB|GBd "C"e3|
"G"~g3 edB|dgb age|"C"dBd gdB|"D"AGF "G"G3:| 